dist/flags/m/292.svg

<svg width="20" height="15" viewBox="0 0 20 15" fill="none" xmlns="http://www.w3.org/2000/svg">
<mask id="mask0" mask-type="alpha" maskUnits="userSpaceOnUse" x="0" y="0" width="20" height="15">
<rect width="20" height="15" fill="white"/>
</mask>
<g mask="url(#mask0)">
<rect width="20" height="15" fill="#F7FCFF"/>
<path fill-rule="evenodd" clip-rule="evenodd" d="M0 10H20V15H0V10Z" fill="#C51918"/>
<path fill-rule="evenodd" clip-rule="evenodd" d="M9.83772 2.04163H8.91666V2.95829H9.37129L9.33886 5.47913H7.99561V4.33329H8.45614V3.41663H7.53508V3.87496H7.07456V3.41663H6.15351V4.33329H6.61403V5.47913H5.64285V6.39579L6.10338 6.39579V9.14579H5.64285V10.0625H14.3929V9.14579H13.4718V6.39579L14.3929 6.39579V5.47913H13.49L13.5128 4.33329H13.9825V3.41663H13.0614V3.87496H12.6009V3.41663H11.6798V4.33329H12.1312L12.1084 5.47913H10.7204L10.7529 2.95829H11.2193V2.04163H10.2982V2.49996H9.83772V2.04163Z" fill="#DB000B"/>
<path d="M7.13159 5.48026C7.13159 5.35309 7.23468 5.25 7.36185 5.25C7.48903 5.25 7.59212 5.35309 7.59212 5.48026V6.625H7.13159V5.48026Z" fill="#272727"/>
<path fill-rule="evenodd" clip-rule="evenodd" d="M6.75992 8.55639C6.75992 8.17488 7.0692 7.8656 7.45071 7.8656C7.83222 7.8656 8.1415 8.17488 8.1415 8.55639V9.69893H6.75992V8.55639Z" fill="#272727"/>
<path fill-rule="evenodd" clip-rule="evenodd" d="M11.8257 8.55639C11.8257 8.17488 12.135 7.8656 12.5165 7.8656C12.898 7.8656 13.2073 8.17488 13.2073 8.55639V9.69893H11.8257V8.55639Z" fill="#272727"/>
<path fill-rule="evenodd" clip-rule="evenodd" d="M9.06256 8.32828C9.06256 7.8196 9.47493 7.40723 9.98361 7.40723C10.4923 7.40723 10.9047 7.8196 10.9047 8.32828V10.1572H9.06256V8.32828Z" fill="#272727"/>
<path d="M9.89474 5.48026C9.89474 5.35309 9.99784 5.25 10.125 5.25C10.2522 5.25 10.3553 5.35309 10.3553 5.48026V6.625H9.89474V5.48026Z" fill="#272727"/>
<path d="M12.6579 5.48026C12.6579 5.35309 12.761 5.25 12.8882 5.25C13.0153 5.25 13.1184 5.35309 13.1184 5.48026V6.625H12.6579V5.48026Z" fill="#272727"/>
<path fill-rule="evenodd" clip-rule="evenodd" d="M10.3265 9.49827L10.2135 9.70574L10.003 9.39172L8.27872 10.5473L10.2011 11.4622L11.8966 10.3535L10.3265 9.49827ZM9.53913 10.455L10.0938 10.0832L10.6798 10.4024L10.1528 10.747L9.53913 10.455Z" fill="#E8AA00"/>
<path fill-rule="evenodd" clip-rule="evenodd" d="M8.97369 12.8333H9.89475V13.7499H8.97369V12.8333Z" fill="#E8AA00"/>
<path fill-rule="evenodd" clip-rule="evenodd" d="M9.5 11.25H10.593V13.75H9.5V11.25Z" fill="#E8AA00"/>
</g>
</svg>

<svg width="20" height="15" fill="none" xmlns="http://www.w3.org/2000/svg">
  <mask id="a" maskUnits="userSpaceOnUse" x="0" y="0" width="20" height="15">
    <path fill="#fff" d="M0 0h20v15H0z"/>
  </mask>
  <g mask="url(#a)">
    <path fill="#F7FCFF" d="M0 0h20v15H0z"/>
    <path fill-rule="evenodd" clip-rule="evenodd" d="M0 10h20v5H0v-5z" fill="#C51918"/>
    <path fill-rule="evenodd" clip-rule="evenodd" d="M9.838 2.042h-.921v.916h.454L9.34 5.48H7.996V4.333h.46v-.916h-.92v.458h-.461v-.458h-.921v.916h.46V5.48h-.971v.917h.46v2.75h-.46v.916h8.75v-.916h-.921v-2.75h.92V5.48h-.902l.023-1.146h.47v-.916h-.922v.458h-.46v-.458h-.921v.916h.451l-.023 1.146H10.72l.033-2.52h.466v-.917h-.92V2.5h-.461v-.458z" fill="#DB000B"/>
    <path d="M7.132 5.48a.23.23 0 11.46 0v1.145h-.46V5.48z" fill="#272727"/>
    <path fill-rule="evenodd" clip-rule="evenodd" d="M6.76 8.556a.69.69 0 011.382 0V9.7H6.76V8.556zm5.066 0a.69.69 0 011.381 0V9.7h-1.381V8.556zm-2.763-.228a.921.921 0 011.842 0v1.83H9.063v-1.83z" fill="#272727"/>
    <path d="M9.895 5.48a.23.23 0 01.46 0v1.145h-.46V5.48zm2.763 0a.23.23 0 01.46 0v1.145h-.46V5.48z" fill="#272727"/>
    <path fill-rule="evenodd" clip-rule="evenodd" d="M10.326 9.498l-.113.208-.21-.314-1.724 1.155 1.922.915 1.696-1.108-1.57-.856zm-.787.957l.555-.372.586.32-.527.344-.614-.292zm-.565 2.378h.92v.917h-.92v-.917z" fill="#E8AA00"/>
    <path fill-rule="evenodd" clip-rule="evenodd" d="M9.5 11.25h1.093v2.5H9.5v-2.5z" fill="#E8AA00"/>
  </g>
</svg>
